X:1
T:James Gibb editions
T:Vexilla regis - Bruckner
T:#
%%score [ 1 2 3 4 ]
L:1/8
Q:1/4=160
M:2/2
K:C
V:1 treble nm="Soprano" snm="S"
V:2 treble nm="Alto" snm="A"
V:3 treble-8 nm="Tenor" snm="T"
V:4 bass nm="Bass" snm="B"
V:1
!p!"^Vexilla regis""^Anton Bruckner\n(1824-1896)" E8 |!<(! E4 F4!<)! | (F4 E4- | %3
w: Ve-|xil- la|re\- *|
!>(! E2 D2) (G2 F2)!>)! | (E4 C2 D2 | E2 F2 EGAB |"^cresc." c2 AB c2) d2 | d4 z4 |!f! ^d4 ^f4 | %9
w: * * gis *|pro\- * *||* * * * de-|unt|ful- get|
 ^c4 ^d4 |[M:2/2] (e4 =d4 | =c6) c2 |"^dim." B4 E2 E2 | ^F6 F2 | ^G4 z4 | z4!p! A4 |!<(! (A8!<)! | %17
w: cru- cis,|ful- *|* get|cru- cis my-|ste- ri-|um|quo|car\-|
 !>!_B4) A4 | d8- |!>(! d4 c4!>)! |!p! (c8- | c2 _B2) (A2 B2) | A4 z4 | z4 A4 | %24
w: * ne|car\-|* nis|con\-|* * di\- *|tor|su-|
!<(! !courtesy!=B8!<)! | c4 B4 | _B8- | B4 !courtesy!_B4 |!>(! (_A4 G4)!>)! | z4 (G2 F2) | %30
w: spen-|sus, su-|spen\-|* sus|est *|pa\- *|
 !courtesy!=E8- |!<(! E8!<)! | E8 | E6!>(! E2 | !fermata!E8!>)! ||!p!!<(! E8-!<)! | E4 F4- | %37
w: ti\-|||* bu-|lo.|O|* crux|
 F4 (E4- |!>(! E2 D2) (G2 F2)!>)! | E4 (C2 D2 | E2 F2"^cresc." EGAB | c2 AB c2) d2 | d4 z4 | %43
w: * a\-|* * ve *|spes u\- *||* * * * ni-|ca|
!f! ^d4 ^f3 f | ^c4 ^d4 | (e4 =d4 | =c6) c2 |"^dim." B4 E4 | ^F6 F2 | ^G4 z4 | z4!p! (A4- | %51
w: hoc pas- si-|o- nis,|pas\- *|* si-|o- nis|tem- po-|re|au\-|
!<(! A8!<)! | _B4) A4 | d8 |!>(! d4 c4!>)! | (c8- | c2 _B2) (A2 B2) | A4 z4 | z4 A4 | %59
w: |* ge|pi-|is ju-|sti\-|* * ti\- *|am|re-|
!<(! (!courtesy!=B8 | c4)!<)! B4 | _B8- | B4 !courtesy!_B4 |!>(! _A4 G4!>)! | z4 G2 F2 | %65
w: i\-|* sque|do\-|* na,|do- na,|do- na|
 !courtesy!=E8- | E8 |!<(! E8 | E6!<)! E2 |!>(! !fermata!E8!>)! ||!p! E8 | E4 F4 | (F4 E4- | %73
w: ve\-|||* ni-|am.|Te|sum- ma|De\- *|
 E2 D2) (G2 F2) | (E4 C2 D2 | E2 F2"^cresc." EGAB | c2 AB c2) d2 | d4 z4 |!f! ^d4 (^f4 | ^c4) ^d4 | %80
w: * * us *|Tri\- * *||* * * * ni-|tas|col- lau\-|* det,|
 e4 (=d4 | =c6 c2 | B4"^dim." E4 | ^F6 F2 | ^G4 z4 | z4!p! (A4- |!<(! A8!<)! | _B4) A4 | !>!d8 | %89
w: col- lau\-|* det|o- mnis|spi- ri-|tus|quos||* per|cru-|
!>(! d4 c4!>)! | c8- | c2 _B2) (A2 B2) | A4 z4 | z4 (A4 |!<(! !courtesy!=B8 | c4)!<)! B4 | _B8 | %97
w: cis my-|ste\-|* * ri\- *|um|sal\-||* vas|re-|
 _B4 B4 |!>(! _A3 A!>)! G4 | z4 G2 F2 | !courtesy!=E8- | E8 |!<(! E8!<)! |!>(! E8!>)! | %104
w: ge per|sae- cu- la.|A- men,|A\-||||
!pp!!>(! !fermata!E8!>)! |] %105
w: men.|
V:2
!p! (E4 D2 C2) |!<(! B,4 C4!<)! | (C8 |!>(! A,4) A,4!>)! | (E4 C2 D2 | E2 F2 E2 F2 | %6
w: Ve\- * *|xil- la|re\-|* gis|pro\- * *||
"^cresc." E6) ^F2 | G4 z4 |!f! ^F4 F4 | ^F4 F4 |[M:2/2] (E4 G4 | E6) E2 |"^dim." ^D4 E2 E2 | %13
w: * de-|unt|ful- get|cru- cis,|ful\- *|* get|cru- cis my-|
 E6 ^D2 | E4 z4 | z8 | z4!p!!<(! F4!<)! | !>!G4 F4 | (A4 D2 E2 |!>(! F4) F4!>)! |!p! D8- | D4 D4 | %22
w: ste- ri-|um||quo|car- ne|car\- * *|* nis|con\-|* di-|
 C4 z4 | z4 (F2 E2) |!<(! ^D8!<)! | ^D4 D4 | (_E8 | D4) D4 |!>(! C8-!>)! | C6 C2 | (C8 | %31
w: tor|su\- *|spen-|sus, su-|spen\-|* sus|est|* pa-|ti\-|
!<(! D4 C4!<)! | B,8 |!>(! A,6) B,2!>)! | !fermata!B,8 ||!p!!<(! (E4 D2 C2!<)! | B,4) C4 | C8 | %38
w: ||* bu-|lo.|O * *|* crux|a-|
!>(! A,8!>)! | E4 (C2 D2 | E2 F2"^cresc." E2 F2 | E6) ^F2 | G4 z4 |!f! ^F4 F3 F | ^F4 F4 | (E4 G4 | %46
w: ve|spes u\- *||* ni-|ca|hoc pas- si-|o- nis,|pas\- *|
 E6) E2 |"^dim." ^D4 E4 | E6 ^D2 | E4 z4 | z8 | z4!p!!<(! (F4 | G4)!<)! F4 | (A4 D2 E2) | %54
w: * si-|o- nis|tem- po-|re||au\-|* ge|pi\- * *|
!>(! F4 F4!>)! | D8- | D4 D4 | C4 z4 | z4 (F2 E2) |!<(! ^D8- | D4!<)! !courtesy!^D4 | (_E8 | %62
w: is ju-|sti\-|* ti-|am|re\- *|i\-|* sque|do\-|
 D4) D4 |!>(! C8-!>)! | C6 C2 | (C8 | D4 C4 |!<(! B,8 | A,6)!<)! B,2 |!>(! !fermata!B,8!>)! || %70
w: * na,|do\-|* na|ve\-|||* ni-|am.|
!p! (E4 D2 C2) | B,4 C4 | (C8 | A,4) A,4 | (E4 C2 D2 | E2 F2"^cresc." E2 F2 | E6) ^F2 | G4 z4 | %78
w: Te * *|sum- ma|De\-|* us|Tri\- * *||* ni-|tas|
!f! ^F4 F4- | !courtesy!^F4 F4 | E4 (G4 | E6 E2 | ^D4"^dim." E4 | E6 ^D2 | E4 z4 | z8 | %86
w: col- lau\-|* det,|col- lau\-|* det|o- mnis|spi- ri-|tus||
 z4!p!!<(! (F4 | G4)!<)! F4 | !>!A4 D2 E2) |!>(! F4 F4!>)! | D8- | D4 D4 | C4 z4 | z4 (F2 E2 | %94
w: quos|* per|cru\- * *|cis my-|ste\-|* ri-|um|sal\- *|
!<(!!<(! ^D8-!<)! | D4)!<)! !courtesy!^D4 | _E8 | D4 D4 |!>(! C8-!>)! | C6 C2 | C8 | D4 C4 | %102
w: |* vas|re-|ge per|sae\-|* cu-|la.|A- men,|
!<(! (B,8!<)! |!>(! A,6 B,2)!>)! |!pp!!>(! !fermata!B,8!>)! |] %105
w: A\-||men.|
V:3
!p! E8 |!<(! B4 A4!<)! | (G8 |!>(! F4) d4!>)! | (E4 C2 D2 | E2 F2 E2 d2 |"^cresc." c3 d e2) c2 | %7
w: Ve-|xil- la|re\-|* gis|pro\- * *||* * * de-|
 B4 z4 |!f! B4 B4 | ^A4 B4 |[M:2/2][K:treble-8] (G4 B4- | B4 =A2) G2 |"^dim." ^F4 E2 E2 | %13
w: unt|ful- get|cru- cis,|ful\- *|* * get|cru- cis my-|
 (c4 B2) B2 | B4 z4 | z4!p! A4 |!<(! (A8!<)! | !>!_d4) c4 | (f4 F2 G2 |!>(! A4) A4!>)! |!p! F8- | %21
w: ste\- * ri-|um|quo|car\-|* ne|car\- * *|* nis|con\-|
 F4 F4 | F4 z4 | z4 A4 |!<(! A8!<)! | A4 A4 | (_B8 | _A4) (G2 F2) |!>(! _E8-!>)! | E6 F2 | (G8 | %31
w: * di-|tor|su-|spen-|sus, su-|spen\-|* sus *|est|* pa-|ti\-|
!<(! !courtesy!=E4 !courtesy!=A4!<)! | B8 | c6)!>(! B2 | !fermata!B8!>)! ||!p!!<(! E8!<)! | %36
w: ||* bu-|lo.|O|
 (B4 A4) | (G8 |!>(! F4) d4!>)! | E4 (C2 D2 | E2 F2"^cresc." E2 d2 | c3 d e2) c2 | B4 z4 | %43
w: crux *|a\-|* ve|spes u\- *||* * * ni-|ca|
!f! B4 B3 B | ^A4 B4 | (G4 B4- | B4 !courtesy!=A2) G2 |"^dim." ^F4 E4 | (c4 B2) B2 | B4 z4 | %50
w: hoc pas- si-|o- nis,|pas\- *|* * si-|o- nis|tem\- * po-|re|
 z4!p! A4- |!<(! A8!<)! | _d4 c4 | (f4 F2 G2) |!>(! A4 A4!>)! | F8- | F4 F4 | F4 z4 | z4 A4 | %59
w: au\-||* ge|pi\- * *|is ju-|sti\-|* ti-|am|re-|
!<(! A8- | A4!<)! A4 | (_B8 | _A4) (G2 F2) |!>(! _E8-!>)! | E6 F2 | (G8 | %66
w: i\-|* sque|do\-|* na, *|do\-|* na|ve\-|
 !courtesy!=E4 !courtesy!=A4 |!<(! B8 | c6)!<)! B2 |!>(! !fermata!B8!>)! ||!p! E8 | B4 A4 | (G8 | %73
w: ||* ni-|am.|Te|sum- ma|De\-|
 F4) d4 | (E4 C2 D2 | E2 F2"^cresc." E2 d2 | c3 d e2) c2 | B4 z4 |!f! B8 | ^A4 B4 | G4 (B4- | %81
w: * us|Tri\- * *||* * * ni-|tas|col-|lau- det,|col- lau\-|
 B4 !courtesy!=A2) G2 | ^F4"^dim." E4 | (c4 B2) B2 | B4 z4 | z4!p! A4- |!<(! A8!<)! | _d4 c4 | %88
w: * * det|o- mnis|spi\- * ri-|tus|quos||* per|
 (!>!f4 F2 G2) |!>(! A4 A4!>)! | F8- | F4 F4 | F4 z4 | z4 A4- |!<(! A8 | A4!<)! A4 | _B8 | %97
w: cru\- * *|cis my-|ste\-|* ri-|um|sal\-||* vas|re-|
 _A4 (G2 F2) |!>(! _E8-!>)! | E6 F2 | G8 | !courtesy!=E4 !courtesy!=A4 |!<(! (B8!<)! | %103
w: ge per *|sae\-|* cu-|la.|A- men,|A\-|
!>(! c6 B2)!>)! |!pp!!>(! !fermata!B8!>)! |] %105
w: |men.|
V:4
!p! E,8 |!<(! G,4 F,4!<)! | (C,8 |!>(! D,4) D,4!>)! | (E,2 B,,2 C,2 D,2 | E,2 F,2 E,2 D,2 | %6
w: Ve-|xil- la|re\-|* gis|pro\- * * *||
"^cresc." A,,4 A,2) A,2 | G,4 z4 |!f! B,,4 (^D,2 E,2) | ^F,4 B,,4 |[M:2/2] (C,4 G,,4 | A,,6) A,,2 | %12
w: * * de-|unt|ful- get *|cru- cis,|ful\- *|* get|
"^dim." B,,4 C,2 B,,2 | (A,,4 B,,2) B,,2 | [E,,E,]4 z4 | z4!p! A,4 |!<(! (G,4!<)! F,4 | %17
w: cru- cis my-|ste\- * ri-|um|quo|car\- *|
 !>!E,4) F,4 | (D,8 |!>(! F,,4) F,,4!>)! |!p! _B,,8- | B,,4 D,4 | F,4 z4 | z4 F,4 |!<(! ^F,8!<)! | %25
w: * ne|car\-|* nis|con\-|* di-|tor|su-|spen-|
 ^F,4 F,4 | (G,8 | _B,,4) B,,4 |!>(! C,8!>)! | _A,,8 | (C,8 | %31
w: sus, su-|spen\-|* sus|est|pa-|ti\-|
!<(! !courtesy!=B,,4 !courtesy!=A,,4!<)! | [E,,E,]8- | [E,,E,]6)!>(! [E,,E,]2 | %34
w: ||* bu-|
 !fermata![E,,E,]8!>)! ||!p!!<(! E,8!<)! | (G,4 F,4) | C,8 |!>(! D,8!>)! | (E,2 B,,2) (C,2 D,2 | %40
w: lo.|O|crux *|a-|ve|spes * u\- *|
 E,2 F,2"^cresc." E,2 D,2 | A,,4 A,2) A,2 | G,4 z4 |!f! B,,4 ^D,2 E,2 | ^F,4 B,,4 | (C,4 G,,4 | %46
w: |* * ni-|ca|hoc pas- si-|o- nis,|pas\- *|
 A,,6) A,,2 |"^dim." B,,4 (C,2 B,,2) | (A,,4 B,,2) B,,2 | E,,4 z4 | z4!p! (A,4 |!<(! G,4 F,4!<)! | %52
w: * si-|o- nis *|tem\- * po-|re|au\-||
 E,4) F,4 | D,8 |!>(! F,,4 F,,4!>)! | _B,,8- | B,,4 D,4 | F,4 z4 | z4 F,4 |!<(! ^F,8- | %60
w: * ge|pi-|is ju-|sti\-|* ti-|am|re-|i-|
 F,4!<)! !courtesy!^F,4 | (G,8 | _B,,4) B,,4 |!>(! (C,8!>)! | _A,,6) A,,2 | (C,8 | %66
w: * sque|do\-|* na,|do\-|* na|ve\-|
 !courtesy!=B,,4 !courtesy!=A,,4 |!<(! [E,,E,]8- | [E,,E,]6)!<)! [E,,E,]2 | %69
w: ||* ni-|
!>(! !fermata![E,,E,]8!>)! ||!p! E,8 | G,4 F,4 | (C,8 | D,4) D,4 | (E,2 B,,2 C,2 D,2 | %75
w: am.|Te|sum- ma|De\-|* us|Tri\- * * *|
 E,2 F,2"^cresc." E,2 D,2 | A,,4 A,2) A,2 | G,4 z4 |!f! B,,4 (^D,2 E,2 | ^F,4) B,,4 | C,4 (G,,4 | %81
w: |* * ni-|tas|col- lau\- *|* det,|col- lau\-|
 A,,6 A,,2 | (B,,4"^dim." C,2) B,,2 | A,,4 B,,2) B,,2 | [E,,E,]4 z4 | z4!p! (A,4 | %86
w: * det|o\- * mnis|spi\- * ri-|tus|quos|
!<(! G,4 F,4!<)! | E,4) F,4 | !>!D,8 |!>(! F,,4 F,,4!>)! | _B,,8- | B,,4 D,4 | F,4 z4 | z4 (F,4 | %94
w: |* per|cru-|cis my-|ste\-|* ri-|um|sal\-|
!<(! ^F,8- | F,4)!<)! !courtesy!^F,4 | G,8 | _B,,4 B,,4 |!>(! (C,8!>)! | _A,,6) A,,2 | C,8 | %101
w: |* vas|re-|ge per|sae\-|* cu-|la.|
 !courtesy!=B,,4 !courtesy!=A,,4 |!<(! [E,,E,]8-!<)! |!>(! [E,,E,]8!>)! | %104
w: A- men,|A\-||
!pp!!>(! !fermata![E,,E,]8!>)! |] %105
w: men.|

